icons/desktop/16/svg/all-tabs-16.svg

<svg width="16" height="16" viewBox="0 0 16 16" fill="none" xmlns="http://www.w3.org/2000/svg">
<path d="M1.62817 12.999C1.81019 13.387 2.17611 13.6747 2.63208 13.7217C6.18603 14.0917 9.81992 14.0907 13.3909 13.7197C13.8359 13.6737 14.1953 13.387 14.3743 13L15.9504 12.999C15.7264 14.17 14.7671 15.0829 13.5461 15.2109C11.7072 15.4019 9.83817 15.499 8.00024 15.499C6.16224 15.499 4.30378 15.4029 2.47778 15.2139C1.24491 15.0858 0.27702 14.1709 0.0510254 12.999H1.62817Z" fill="black"/>
<path fill-rule="evenodd" clip-rule="evenodd" d="M8.00024 0C9.45548 6.58052e-06 11.0563 0.05885 12.7776 0.212891L13.5227 0.285156L13.7815 0.324219C15.0526 0.578932 16.0002 1.69892 16.0002 3.02539V8.97461C16.0002 10.374 14.9515 11.5652 13.5461 11.7119C11.8588 11.8873 10.0013 12 8.00024 12C6.33714 12 4.48388 11.9227 2.47778 11.7148C1.07852 11.5696 0.000244141 10.3897 0.000244141 8.97461V3.02539C0.000244141 1.62588 1.0489 0.434651 2.45435 0.288086C4.14174 0.112661 5.99921 0 8.00024 0ZM8.00024 1.5C6.05546 1.5 4.2501 1.60973 2.60962 1.78027C1.98134 1.84597 1.50024 2.38109 1.50024 3.02539V8.97461C1.50024 9.61348 1.99034 10.1559 2.63306 10.2227C4.58259 10.4247 6.38361 10.5 8.00024 10.5C9.94503 10.5 11.7504 10.3903 13.3909 10.2197C14.019 10.1539 14.5002 9.61883 14.5002 8.97461V3.02539C14.5002 2.3866 14.01 1.84418 13.3674 1.77734C11.4179 1.57531 9.61688 1.50001 8.00024 1.5Z" fill="black"/>
</svg>

<!-- This Source Code Form is subject to the terms of the Mozilla Public
   - License, v. 2.0. If a copy of the MPL was not distributed with this
   - file, You can obtain one at http://mozilla.org/MPL/2.0/. -->
<svg xmlns="http://www.w3.org/2000/svg" width="16" height="16" fill="context-fill" fill-opacity="context-fill-opacity" viewBox="0 0 16 16">
    <path d="M1.628 12.999a1.25 1.25 0 0 0 1.004.723 52.2 52.2 0 0 0 10.759-.002c.445-.046.804-.333.983-.72l1.576-.001a2.74 2.74 0 0 1-2.404 2.212A54 54 0 0 1 8 15.499c-1.838 0-3.696-.096-5.522-.285A2.75 2.75 0 0 1 .05 12.999z" />
    <path fill-rule="evenodd" d="M8 0c1.455 0 3.056.059 4.778.213l.745.072.258.04a2.76 2.76 0 0 1 2.22 2.7v5.95c0 1.399-1.05 2.59-2.455 2.737a53.6 53.6 0 0 1-11.068.003A2.76 2.76 0 0 1 0 8.975v-5.95C0 1.625 1.05.435 2.454.288A54 54 0 0 1 8 0m0 1.5c-1.945 0-3.75.11-5.39.28-.629.066-1.11.601-1.11 1.245v5.95c0 .638.49 1.18 1.133 1.248a52 52 0 0 0 10.758-.003c.628-.066 1.11-.601 1.11-1.245v-5.95c0-.638-.491-1.18-1.134-1.248A52 52 0 0 0 8 1.5" clip-rule="evenodd" />
</svg>
